X:221
T:The Flogging Reel
M:C|
L:1/8
K:G
"G"BGGG BGdG|BGGG Bdgd|BGGG GBdB|"D"AGFG ABcA|
"G"BGGG BGdG|BGGG Bdgd|BGGG GBdB|"D"AGFG ABcA:|
|:"G"g2 gd BGBd|g2 ge "D"fgaf|"G"g2 gd BGcB|"D"AGFG ABcA|
"G"g2 gd BGBd|g2 ge "D"fgaf|"Em"b/a/g af gedB|"D"AGFG ABcA:|
|:"G"Bdgd Bdgd|Bdgd BGGG|"F"Ac=fc Acfc|Ac=fc AFFF|
"G"Bdgd Bdgd|Bdef g2 ga|"Em"b/a/g af gedB|"D"AGFG ABcA:|
